images/php.svg

<?xml version="1.0" encoding="UTF-8" standalone="no"?>
<svg width="32px" height="19px" viewBox="0 0 32 19" version="1.1" xmlns="http://www.w3.org/2000/svg" xmlns:xlink="http://www.w3.org/1999/xlink">
    <!-- Generator: Sketch 3.8.3 (29802) - http://www.bohemiancoding.com/sketch -->
    <title>php-file-rounded-rectangular-outlined-interface-symbol</title>
    <desc>Created with Sketch.</desc>
    <defs></defs>
    <g id="Page-1" stroke="none" stroke-width="1" fill="none" fill-rule="evenodd">
        <g id="Home" transform="translate(-180.000000, -1566.000000)" fill="#616572">
            <g id="Group-12" transform="translate(152.000000, 1337.000000)">
                <g id="php-file-rounded-rectangular-outlined-interface-symbol" transform="translate(28.000000, 229.000000)">
                    <g id="Capa_1">
                        <g id="Group">
                            <path d="M8.34545455,4.33066667 L4.17272727,4.33066667 L4.17272727,7.18666667 L4.17272727,14.3266667 L5.56363636,14.3266667 L5.56363636,10.0426667 L8.34545455,10.0426667 C9.87549091,10.0426667 11.1272727,8.75742933 11.1272727,7.18666667 C11.1272727,5.61582933 9.87549091,4.33066667 8.34545455,4.33066667 L8.34545455,4.33066667 Z M8.34545455,8.61466667 L5.56363636,8.61466667 L5.56363636,5.75866667 L8.34545455,5.75866667 C9.18,5.75866667 9.73636364,6.32986667 9.73636364,7.18666667 C9.73636364,8.04346667 9.18,8.61466667 8.34545455,8.61466667 L8.34545455,8.61466667 Z" id="Shape"></path>
                            <polygon id="Shape" points="18.0818182 8.61466667 13.9090909 8.61466667 13.9090909 4.33066667 12.5181818 4.33066667 12.5181818 14.3266667 13.9090909 14.3266667 13.9090909 10.0426667 18.0818182 10.0426667 18.0818182 14.3266667 19.4727273 14.3266667 19.4727273 4.33066667 18.0818182 4.33066667"></polygon>
                            <path d="M27.8181818,0.0466666667 L4.17272727,0.0466666667 C1.80814545,0.0466666667 0,1.90302933 0,4.33066667 L0,14.3266667 C0,16.754304 1.80814545,18.6106667 4.17272727,18.6106667 L27.8181818,18.6106667 C30.1827636,18.6106667 31.9909091,16.754304 31.9909091,14.3266667 L31.9909091,4.33066667 C31.9909091,1.90302933 30.1827636,0.0466666667 27.8181818,0.0466666667 L27.8181818,0.0466666667 Z M30.6,14.3266667 C30.6,15.8974293 29.3481455,17.1826667 27.8181818,17.1826667 L4.17272727,17.1826667 C2.64269091,17.1826667 1.39090909,15.8974293 1.39090909,14.3266667 L1.39090909,4.33066667 C1.39090909,2.75982933 2.64269091,1.47466667 4.17272727,1.47466667 L27.8181818,1.47466667 C29.3481455,1.47466667 30.6,2.75982933 30.6,4.33066667 L30.6,14.3266667 L30.6,14.3266667 Z" id="Shape"></path>
                            <path d="M25.0363636,4.33066667 L20.8636364,4.33066667 L20.8636364,7.18666667 L20.8636364,14.3266667 L22.2545455,14.3266667 L22.2545455,10.0426667 L25.0363636,10.0426667 C26.5663273,10.0426667 27.8181818,8.75742933 27.8181818,7.18666667 C27.8181818,5.61582933 26.5663273,4.33066667 25.0363636,4.33066667 L25.0363636,4.33066667 Z M25.0363636,8.61466667 L22.2545455,8.61466667 L22.2545455,5.75866667 L25.0363636,5.75866667 C25.8709091,5.75866667 26.4272727,6.32986667 26.4272727,7.18666667 C26.4272727,8.04346667 25.8709091,8.61466667 25.0363636,8.61466667 L25.0363636,8.61466667 Z" id="Shape"></path>
                        </g>
                    </g>
                </g>
            </g>
        </g>
    </g>
</svg>

<svg width="32" height="19" viewBox="0 0 32 19" xmlns="http://www.w3.org/2000/svg"><title>php-file-rounded-rectangular-outlined-interface-symbol</title><g fill="#616572" fill-rule="evenodd"><path d="M8.345 4.33H4.173v9.997h1.39v-4.284h2.782c1.53 0 2.782-1.286 2.782-2.856 0-1.571-1.252-2.856-2.782-2.856zm0 4.285H5.564V5.759h2.781c.835 0 1.391.57 1.391 1.428 0 .856-.556 1.428-1.39 1.428zM18.082 8.615h-4.173V4.33h-1.39v9.996h1.39v-4.284h4.173v4.284h1.39V4.33h-1.39z"/><path d="M27.818.047H4.173C1.808.047 0 1.903 0 4.33v9.996c0 2.427 1.808 4.284 4.173 4.284h23.645c2.365 0 4.173-1.857 4.173-4.284V4.33c0-2.428-1.808-4.284-4.173-4.284zm2.782 14.28c0 1.57-1.252 2.856-2.782 2.856H4.173c-1.53 0-2.782-1.286-2.782-2.856V4.33c0-1.571 1.252-2.856 2.782-2.856h23.645c1.53 0 2.782 1.285 2.782 2.856v9.996z"/><path d="M25.036 4.33h-4.172v9.997h1.39v-4.284h2.782c1.53 0 2.782-1.286 2.782-2.856 0-1.571-1.252-2.856-2.782-2.856zm0 4.285h-2.781V5.759h2.781c.835 0 1.391.57 1.391 1.428 0 .856-.556 1.428-1.39 1.428z"/></g></svg>
